X: 1
T: Far Away in Australia
S: Printed page of unknown origin.
R: air, waltz, jig
Z: 2017 John Chambers <jc:trillian.mit.edu>
M: 6/8
L: 1/8
K: C
 [|\
"C"CEG GEG | "F"AFA "C"G3 |\
"C"CEG A2G | "G"D3- D2c |\
"Am"cAc "Em"BGB | "F"AFA "C"G2A/B/ |\
"C"cG[AE] "G"E2D | "C"C3- C2z |]
 [|\
"C"C2D EGA | E2D "G"D3 |\
"Am"c>BA "Em"BAG | "F"A3- A2B |\
"Am"c>BA "Em"BAG | "F"AGA "C"E2D |\
"C"EGA "G"E2D | "C"C3- Cz |]
